; generated by PrusaSlicer 2.3.0+win64 on 2021-03-13 at 15:24:35 UTC

; 

; external perimeters extrusion width = 0.45mm
; perimeters extrusion width = 0.45mm
; infill extrusion width = 0.45mm
; solid infill extrusion width = 0.45mm
; top infill extrusion width = 0.40mm
; first layer extrusion width = 0.51mm

M107
;TYPE:Custom
G90 ; use absolute coordinates
M83 ; extruder relative mode
G28 ; home all
M420 S1
G1 Z15 F150
M104 S140
M140 S60 ; set bed temp
M190 S60 ; wait for bed temp
M109 S212 ; wait for extruder temp
M104 S220 ; set extruder temp
G1 Z2 F240
G1 X215 Y210 F3000
G1 Z0.34 F240
G92 E0
G1 Y30 E15 F1500 ; intro line
G1 X215.3 F5000
G92 E0
G1 Y210 E15 F1200 ; intro line
G92 E0
G21 ; set units to millimeters
G90 ; use absolute coordinates
M83 ; use relative distances for extrusion
; Filament gcode
;LAYER_CHANGE
;Z:0.34
;HEIGHT:0.34
;BEFORE_LAYER_CHANGE
G92 E0
;0.34


G1 E-4.00000 F3000.000
G1 Z0.320 F4800.000
;AFTER_LAYER_CHANGE
;0.34
G1 X191.566 Y189.066
G1 E4.00000 F2400.000
;TYPE:Perimeter
;WIDTH:0.51
G1 F900.000
G1 X208.434 Y189.066 E1.03024
G1 X208.434 Y205.934 E1.03024
G1 X191.566 Y205.934 E1.03024
G1 X191.566 Y189.126 E1.02658
G1 X191.129 Y188.629 F4800.000
G1 F900.000
G1 X208.871 Y188.629 E1.08363
G1 X208.871 Y206.371 E1.08363
G1 X191.129 Y206.371 E1.08363
G1 X191.129 Y188.689 E1.07996
G1 X190.692 Y188.192 F4800.000
G1 F900.000
G1 X209.308 Y188.192 E1.13701
G1 X209.308 Y206.808 E1.13701
G1 X190.692 Y206.808 E1.13701
G1 X190.692 Y188.252 E1.13335
G1 X190.255 Y187.755 F4800.000
;TYPE:External perimeter
G1 F900.000
G1 X209.745 Y187.755 E1.19040
G1 X209.745 Y207.245 E1.19040
G1 X190.255 Y207.245 E1.19040
G1 X190.255 Y187.815 E1.18673
G1 X190.641 Y187.859 F4800.000
G1 E-2.80000 F3000.000
;WIPE_START
G1 F3840.000
G1 X191.791 Y187.810 E-1.14000
;WIPE_END
G1 E-0.06000 F3000.000
G1 X207.404 Y189.197 F4800.000
G1 E4.00000 F2400.000
;TYPE:Solid infill
;WIDTH:0.517223
G1 F900.000
G1 X208.106 Y189.899 E0.06165
G1 X208.106 Y190.528 E0.03901
G1 X206.972 Y189.394 E0.09955
G1 X206.344 Y189.394 E0.03901
G1 X208.106 Y191.156 E0.15471
G1 X208.106 Y191.784 E0.03901
G1 X205.716 Y189.394 E0.20988
G1 X205.088 Y189.394 E0.03901
G1 X208.106 Y192.412 E0.26504
G1 X208.106 Y193.041 E0.03901
G1 X204.459 Y189.394 E0.32021
G1 X203.831 Y189.394 E0.03901
G1 X208.106 Y193.669 E0.37537
G1 X208.106 Y194.297 E0.03901
G1 X203.203 Y189.394 E0.43054
G1 X202.574 Y189.394 E0.03901
G1 X208.106 Y194.926 E0.48570
G1 X208.106 Y195.554 E0.03901
G1 X201.946 Y189.394 E0.54087
G1 X201.318 Y189.394 E0.03901
G1 X208.106 Y196.182 E0.59603
G1 X208.106 Y196.810 E0.03901
G1 X200.690 Y189.394 E0.65120
G1 X200.061 Y189.394 E0.03901
G1 X208.106 Y197.439 E0.70636
G1 X208.106 Y198.067 E0.03901
G1 X199.433 Y189.394 E0.76153
G1 X198.805 Y189.394 E0.03901
G1 X208.106 Y198.695 E0.81669
G1 X208.106 Y199.323 E0.03901
G1 X198.177 Y189.394 E0.87186
G1 X197.548 Y189.394 E0.03901
G1 X208.106 Y199.952 E0.92702
G1 X208.106 Y200.580 E0.03901
G1 X196.920 Y189.394 E0.98219
G1 X196.292 Y189.394 E0.03901
G1 X208.106 Y201.208 E1.03735
G1 X208.106 Y201.837 E0.03901
G1 X195.663 Y189.394 E1.09252
G1 X195.035 Y189.394 E0.03901
G1 X208.106 Y202.465 E1.14768
G1 X208.106 Y203.093 E0.03901
G1 X194.407 Y189.394 E1.20285
G1 X193.779 Y189.394 E0.03901
G1 X208.106 Y203.721 E1.25801
G1 X208.106 Y204.350 E0.03901
G1 X193.150 Y189.394 E1.31318
G1 X192.522 Y189.394 E0.03901
G1 X208.106 Y204.978 E1.36834
G1 X208.106 Y205.606 E0.03900
G1 X191.894 Y189.394 E1.42350
G1 X191.894 Y190.022 E0.03901
G1 X207.478 Y205.606 E1.36833
G1 X206.850 Y205.606 E0.03901
G1 X191.894 Y190.650 E1.31317
G1 X191.894 Y191.279 E0.03901
G1 X206.221 Y205.606 E1.25800
G1 X205.593 Y205.606 E0.03901
G1 X191.894 Y191.907 E1.20284
G1 X191.894 Y192.535 E0.03901
G1 X204.965 Y205.606 E1.14767
G1 X204.336 Y205.606 E0.03901
G1 X191.894 Y193.164 E1.09251
G1 X191.894 Y193.792 E0.03901
G1 X203.708 Y205.606 E1.03734
G1 X203.080 Y205.606 E0.03901
G1 X191.894 Y194.420 E0.98218
G1 X191.894 Y195.048 E0.03901
G1 X202.452 Y205.606 E0.92701
G1 X201.823 Y205.606 E0.03901
G1 X191.894 Y195.677 E0.87185
G1 X191.894 Y196.305 E0.03901
G1 X201.195 Y205.606 E0.81668
G1 X200.567 Y205.606 E0.03901
G1 X191.894 Y196.933 E0.76152
G1 X191.894 Y197.562 E0.03901
G1 X199.938 Y205.606 E0.70635
G1 X199.310 Y205.606 E0.03901
G1 X191.894 Y198.190 E0.65119
G1 X191.894 Y198.818 E0.03901
G1 X198.682 Y205.606 E0.59602
G1 X198.054 Y205.606 E0.03901
G1 X191.894 Y199.446 E0.54085
G1 X191.894 Y200.075 E0.03901
G1 X197.425 Y205.606 E0.48569
G1 X196.797 Y205.606 E0.03901
G1 X191.894 Y200.703 E0.43052
G1 X191.894 Y201.331 E0.03901
G1 X196.169 Y205.606 E0.37536
G1 X195.541 Y205.606 E0.03901
G1 X191.894 Y201.959 E0.32019
G1 X191.894 Y202.588 E0.03901
G1 X194.912 Y205.606 E0.26503
G1 X194.284 Y205.606 E0.03901
G1 X191.894 Y203.216 E0.20986
G1 X191.894 Y203.844 E0.03901
G1 X193.656 Y205.606 E0.15470
G1 X193.027 Y205.606 E0.03901
G1 X191.894 Y204.473 E0.09953
G1 X191.894 Y205.101 E0.03901
G1 X192.596 Y205.803 E0.06164
G1 E-2.80000 F3000.000
;WIPE_START
G1 F3840.000
G1 X191.894 Y205.101 E-0.73682
G1 X191.894 Y204.558 E-0.40319
;WIPE_END
G1 E-0.06000 F3000.000
G1 X38.434 Y205.803 F4800.000
G1 E4.00000 F2400.000
;TYPE:Perimeter
;WIDTH:0.51
G1 F900.000
G1 X38.434 Y205.934 E0.00801
G1 X21.566 Y205.934 E1.03024
G1 X21.566 Y189.066 E1.03024
G1 X38.434 Y189.066 E1.03024
G1 X38.434 Y205.743 E1.01857
G1 X38.871 Y206.371 F4800.000
G1 F900.000
G1 X21.129 Y206.371 E1.08363
G1 X21.129 Y188.629 E1.08363
G1 X38.871 Y188.629 E1.08363
G1 X38.871 Y206.311 E1.07996
G1 X39.308 Y206.808 F4800.000
G1 F900.000
G1 X20.692 Y206.808 E1.13701
G1 X20.692 Y188.192 E1.13701
G1 X39.308 Y188.192 E1.13701
G1 X39.308 Y206.748 E1.13335
G1 X39.745 Y207.245 F4800.000
;TYPE:External perimeter
G1 F900.000
G1 X20.255 Y207.245 E1.19040
G1 X20.255 Y187.755 E1.19040
G1 X39.745 Y187.755 E1.19040
G1 X39.745 Y207.185 E1.18673
G1 X39.359 Y207.141 F4800.000
G1 E-2.80000 F3000.000
;WIPE_START
G1 F3840.000
G1 X38.209 Y207.190 E-1.14000
;WIPE_END
G1 E-0.06000 F3000.000
G1 X37.404 Y189.197 F4800.000
G1 E4.00000 F2400.000
;TYPE:Solid infill
;WIDTH:0.517223
G1 F900.000
G1 X38.106 Y189.899 E0.06165
G1 X38.106 Y190.528 E0.03901
G1 X36.972 Y189.394 E0.09955
G1 X36.344 Y189.394 E0.03901
G1 X38.106 Y191.156 E0.15471
G1 X38.106 Y191.784 E0.03901
G1 X35.716 Y189.394 E0.20988
G1 X35.088 Y189.394 E0.03901
G1 X38.106 Y192.412 E0.26504
G1 X38.106 Y193.041 E0.03901
G1 X34.459 Y189.394 E0.32021
G1 X33.831 Y189.394 E0.03901
G1 X38.106 Y193.669 E0.37537
G1 X38.106 Y194.297 E0.03901
G1 X33.203 Y189.394 E0.43054
G1 X32.574 Y189.394 E0.03901
G1 X38.106 Y194.926 E0.48570
G1 X38.106 Y195.554 E0.03901
G1 X31.946 Y189.394 E0.54087
G1 X31.318 Y189.394 E0.03901
G1 X38.106 Y196.182 E0.59603
G1 X38.106 Y196.810 E0.03901
G1 X30.690 Y189.394 E0.65120
G1 X30.061 Y189.394 E0.03901
G1 X38.106 Y197.439 E0.70636
G1 X38.106 Y198.067 E0.03901
G1 X29.433 Y189.394 E0.76153
G1 X28.805 Y189.394 E0.03901
G1 X38.106 Y198.695 E0.81669
G1 X38.106 Y199.323 E0.03901
G1 X28.177 Y189.394 E0.87186
G1 X27.548 Y189.394 E0.03901
G1 X38.106 Y199.952 E0.92702
G1 X38.106 Y200.580 E0.03901
G1 X26.920 Y189.394 E0.98219
G1 X26.292 Y189.394 E0.03901
G1 X38.106 Y201.208 E1.03735
G1 X38.106 Y201.837 E0.03901
G1 X25.663 Y189.394 E1.09252
G1 X25.035 Y189.394 E0.03901
G1 X38.106 Y202.465 E1.14768
G1 X38.106 Y203.093 E0.03901
G1 X24.407 Y189.394 E1.20285
G1 X23.779 Y189.394 E0.03901
G1 X38.106 Y203.721 E1.25801
G1 X38.106 Y204.350 E0.03901
G1 X23.150 Y189.394 E1.31318
G1 X22.522 Y189.394 E0.03901
G1 X38.106 Y204.978 E1.36834
G1 X38.106 Y205.606 E0.03900
G1 X21.894 Y189.394 E1.42350
G1 X21.894 Y190.022 E0.03901
G1 X37.478 Y205.606 E1.36833
G1 X36.850 Y205.606 E0.03901
G1 X21.894 Y190.650 E1.31317
G1 X21.894 Y191.279 E0.03901
G1 X36.221 Y205.606 E1.25800
G1 X35.593 Y205.606 E0.03901
G1 X21.894 Y191.907 E1.20284
G1 X21.894 Y192.535 E0.03901
G1 X34.965 Y205.606 E1.14767
G1 X34.336 Y205.606 E0.03901
G1 X21.894 Y193.164 E1.09251
G1 X21.894 Y193.792 E0.03901
G1 X33.708 Y205.606 E1.03734
G1 X33.080 Y205.606 E0.03901
G1 X21.894 Y194.420 E0.98218
G1 X21.894 Y195.048 E0.03901
G1 X32.452 Y205.606 E0.92701
G1 X31.823 Y205.606 E0.03901
G1 X21.894 Y195.677 E0.87185
G1 X21.894 Y196.305 E0.03901
G1 X31.195 Y205.606 E0.81668
G1 X30.567 Y205.606 E0.03901
G1 X21.894 Y196.933 E0.76152
G1 X21.894 Y197.562 E0.03901
G1 X29.938 Y205.606 E0.70635
G1 X29.310 Y205.606 E0.03901
G1 X21.894 Y198.190 E0.65119
G1 X21.894 Y198.818 E0.03901
G1 X28.682 Y205.606 E0.59602
G1 X28.054 Y205.606 E0.03901
G1 X21.894 Y199.446 E0.54086
G1 X21.894 Y200.075 E0.03901
G1 X27.425 Y205.606 E0.48569
G1 X26.797 Y205.606 E0.03901
G1 X21.894 Y200.703 E0.43052
G1 X21.894 Y201.331 E0.03901
G1 X26.169 Y205.606 E0.37536
G1 X25.541 Y205.606 E0.03901
G1 X21.894 Y201.959 E0.32019
G1 X21.894 Y202.588 E0.03901
G1 X24.912 Y205.606 E0.26503
G1 X24.284 Y205.606 E0.03901
G1 X21.894 Y203.216 E0.20986
G1 X21.894 Y203.844 E0.03901
G1 X23.656 Y205.606 E0.15470
G1 X23.027 Y205.606 E0.03901
G1 X21.894 Y204.473 E0.09953
G1 X21.894 Y205.101 E0.03901
G1 X22.596 Y205.803 E0.06164
G1 E-2.80000 F3000.000
;WIPE_START
G1 F3840.000
G1 X21.894 Y205.101 E-0.73682
G1 X21.894 Y204.558 E-0.40319
;WIPE_END
G1 E-0.06000 F3000.000
G1 X21.566 Y35.934 F4800.000
G1 E4.00000 F2400.000
;TYPE:Perimeter
;WIDTH:0.51
G1 F900.000
G1 X21.566 Y19.066 E1.03024
G1 X38.434 Y19.066 E1.03024
G1 X38.434 Y35.934 E1.03024
G1 X21.626 Y35.934 E1.02658
G1 X21.129 Y36.371 F4800.000
G1 F900.000
G1 X21.129 Y18.629 E1.08363
G1 X38.871 Y18.629 E1.08363
G1 X38.871 Y36.371 E1.08363
G1 X21.189 Y36.371 E1.07996
G1 X20.692 Y36.808 F4800.000
G1 F900.000
G1 X20.692 Y18.192 E1.13701
G1 X39.308 Y18.192 E1.13701
G1 X39.308 Y36.808 E1.13701
G1 X20.752 Y36.808 E1.13335
G1 X20.255 Y37.245 F4800.000
;TYPE:External perimeter
G1 F900.000
G1 X20.255 Y17.755 E1.19040
G1 X39.745 Y17.755 E1.19040
G1 X39.745 Y37.245 E1.19040
G1 X20.315 Y37.245 E1.18673
G1 X20.359 Y36.859 F4800.000
G1 E-2.80000 F3000.000
;WIPE_START
G1 F3840.000
G1 X20.310 Y35.709 E-1.14000
;WIPE_END
G1 E-0.06000 F3000.000
G1 X37.404 Y19.197 F4800.000
G1 E4.00000 F2400.000
;TYPE:Solid infill
;WIDTH:0.517223
G1 F900.000
G1 X38.106 Y19.899 E0.06165
G1 X38.106 Y20.528 E0.03901
G1 X36.972 Y19.394 E0.09955
G1 X36.344 Y19.394 E0.03901
G1 X38.106 Y21.156 E0.15471
G1 X38.106 Y21.784 E0.03901
G1 X35.716 Y19.394 E0.20988
G1 X35.088 Y19.394 E0.03901
G1 X38.106 Y22.412 E0.26504
G1 X38.106 Y23.041 E0.03901
G1 X34.459 Y19.394 E0.32021
G1 X33.831 Y19.394 E0.03901
G1 X38.106 Y23.669 E0.37537
G1 X38.106 Y24.297 E0.03901
G1 X33.203 Y19.394 E0.43054
G1 X32.574 Y19.394 E0.03901
G1 X38.106 Y24.926 E0.48570
G1 X38.106 Y25.554 E0.03901
G1 X31.946 Y19.394 E0.54087
G1 X31.318 Y19.394 E0.03901
G1 X38.106 Y26.182 E0.59603
G1 X38.106 Y26.810 E0.03901
G1 X30.690 Y19.394 E0.65120
G1 X30.061 Y19.394 E0.03901
G1 X38.106 Y27.439 E0.70636
G1 X38.106 Y28.067 E0.03901
G1 X29.433 Y19.394 E0.76153
G1 X28.805 Y19.394 E0.03901
G1 X38.106 Y28.695 E0.81669
G1 X38.106 Y29.323 E0.03901
G1 X28.177 Y19.394 E0.87186
G1 X27.548 Y19.394 E0.03901
G1 X38.106 Y29.952 E0.92702
G1 X38.106 Y30.580 E0.03901
G1 X26.920 Y19.394 E0.98219
G1 X26.292 Y19.394 E0.03901
G1 X38.106 Y31.208 E1.03735
G1 X38.106 Y31.837 E0.03901
G1 X25.663 Y19.394 E1.09252
G1 X25.035 Y19.394 E0.03901
G1 X38.106 Y32.465 E1.14768
G1 X38.106 Y33.093 E0.03901
G1 X24.407 Y19.394 E1.20285
G1 X23.779 Y19.394 E0.03901
G1 X38.106 Y33.721 E1.25801
G1 X38.106 Y34.350 E0.03901
G1 X23.150 Y19.394 E1.31318
G1 X22.522 Y19.394 E0.03901
G1 X38.106 Y34.978 E1.36834
G1 X38.106 Y35.606 E0.03900
G1 X21.894 Y19.394 E1.42350
G1 X21.894 Y20.022 E0.03901
G1 X37.478 Y35.606 E1.36833
G1 X36.850 Y35.606 E0.03901
G1 X21.894 Y20.650 E1.31317
G1 X21.894 Y21.279 E0.03901
G1 X36.221 Y35.606 E1.25800
G1 X35.593 Y35.606 E0.03901
G1 X21.894 Y21.907 E1.20284
G1 X21.894 Y22.535 E0.03901
G1 X34.965 Y35.606 E1.14767
G1 X34.336 Y35.606 E0.03901
G1 X21.894 Y23.164 E1.09251
G1 X21.894 Y23.792 E0.03901
G1 X33.708 Y35.606 E1.03734
G1 X33.080 Y35.606 E0.03901
G1 X21.894 Y24.420 E0.98218
G1 X21.894 Y25.048 E0.03901
G1 X32.452 Y35.606 E0.92701
G1 X31.823 Y35.606 E0.03901
G1 X21.894 Y25.677 E0.87185
G1 X21.894 Y26.305 E0.03901
G1 X31.195 Y35.606 E0.81668
G1 X30.567 Y35.606 E0.03901
G1 X21.894 Y26.933 E0.76152
G1 X21.894 Y27.562 E0.03901
G1 X29.938 Y35.606 E0.70635
G1 X29.310 Y35.606 E0.03901
G1 X21.894 Y28.190 E0.65119
G1 X21.894 Y28.818 E0.03901
G1 X28.682 Y35.606 E0.59602
G1 X28.054 Y35.606 E0.03901
G1 X21.894 Y29.446 E0.54086
G1 X21.894 Y30.075 E0.03901
G1 X27.425 Y35.606 E0.48569
G1 X26.797 Y35.606 E0.03901
G1 X21.894 Y30.703 E0.43052
G1 X21.894 Y31.331 E0.03901
G1 X26.169 Y35.606 E0.37536
G1 X25.541 Y35.606 E0.03901
G1 X21.894 Y31.959 E0.32019
G1 X21.894 Y32.588 E0.03901
G1 X24.912 Y35.606 E0.26503
G1 X24.284 Y35.606 E0.03901
G1 X21.894 Y33.216 E0.20986
G1 X21.894 Y33.844 E0.03901
G1 X23.656 Y35.606 E0.15470
G1 X23.027 Y35.606 E0.03901
G1 X21.894 Y34.473 E0.09953
G1 X21.894 Y35.101 E0.03901
G1 X22.596 Y35.803 E0.06164
G1 E-2.80000 F3000.000
;WIPE_START
G1 F3840.000
G1 X21.894 Y35.101 E-0.73682
G1 X21.894 Y34.558 E-0.40318
;WIPE_END
G1 E-0.06000 F3000.000
G1 X106.566 Y104.066 F4800.000
G1 E4.00000 F2400.000
;TYPE:Perimeter
;WIDTH:0.51
G1 F900.000
G1 X123.434 Y104.066 E1.03024
G1 X123.434 Y120.934 E1.03024
G1 X106.566 Y120.934 E1.03024
G1 X106.566 Y104.126 E1.02658
G1 X106.129 Y103.629 F4800.000
G1 F900.000
G1 X123.871 Y103.629 E1.08363
G1 X123.871 Y121.371 E1.08363
G1 X106.129 Y121.371 E1.08363
G1 X106.129 Y103.689 E1.07996
G1 X105.692 Y103.192 F4800.000
G1 F900.000
G1 X124.308 Y103.192 E1.13701
G1 X124.308 Y121.808 E1.13701
G1 X105.692 Y121.808 E1.13701
G1 X105.692 Y103.252 E1.13335
G1 X105.255 Y102.755 F4800.000
;TYPE:External perimeter
G1 F900.000
G1 X124.745 Y102.755 E1.19040
G1 X124.745 Y122.245 E1.19040
G1 X105.255 Y122.245 E1.19040
G1 X105.255 Y102.815 E1.18673
G1 X105.641 Y102.859 F4800.000
G1 E-2.80000 F3000.000
;WIPE_START
G1 F3840.000
G1 X106.791 Y102.810 E-1.14000
;WIPE_END
G1 E-0.06000 F3000.000
G1 X122.404 Y104.197 F4800.000
G1 E4.00000 F2400.000
;TYPE:Solid infill
;WIDTH:0.517223
G1 F900.000
G1 X123.106 Y104.899 E0.06165
G1 X123.106 Y105.528 E0.03901
G1 X121.972 Y104.394 E0.09955
G1 X121.344 Y104.394 E0.03901
G1 X123.106 Y106.156 E0.15471
G1 X123.106 Y106.784 E0.03901
G1 X120.716 Y104.394 E0.20988
G1 X120.088 Y104.394 E0.03901
G1 X123.106 Y107.412 E0.26504
G1 X123.106 Y108.041 E0.03901
G1 X119.459 Y104.394 E0.32021
G1 X118.831 Y104.394 E0.03901
G1 X123.106 Y108.669 E0.37537
G1 X123.106 Y109.297 E0.03901
G1 X118.203 Y104.394 E0.43054
G1 X117.574 Y104.394 E0.03901
G1 X123.106 Y109.926 E0.48570
G1 X123.106 Y110.554 E0.03901
G1 X116.946 Y104.394 E0.54087
G1 X116.318 Y104.394 E0.03901
G1 X123.106 Y111.182 E0.59603
G1 X123.106 Y111.810 E0.03901
G1 X115.690 Y104.394 E0.65120
G1 X115.061 Y104.394 E0.03901
G1 X123.106 Y112.439 E0.70636
G1 X123.106 Y113.067 E0.03901
G1 X114.433 Y104.394 E0.76153
G1 X113.805 Y104.394 E0.03901
G1 X123.106 Y113.695 E0.81669
G1 X123.106 Y114.323 E0.03901
G1 X113.177 Y104.394 E0.87186
G1 X112.548 Y104.394 E0.03901
G1 X123.106 Y114.952 E0.92702
G1 X123.106 Y115.580 E0.03901
G1 X111.920 Y104.394 E0.98219
G1 X111.292 Y104.394 E0.03901
G1 X123.106 Y116.208 E1.03735
G1 X123.106 Y116.837 E0.03901
G1 X110.663 Y104.394 E1.09252
G1 X110.035 Y104.394 E0.03901
G1 X123.106 Y117.465 E1.14768
G1 X123.106 Y118.093 E0.03901
G1 X109.407 Y104.394 E1.20285
G1 X108.779 Y104.394 E0.03901
G1 X123.106 Y118.721 E1.25801
G1 X123.106 Y119.350 E0.03901
G1 X108.150 Y104.394 E1.31318
G1 X107.522 Y104.394 E0.03901
G1 X123.106 Y119.978 E1.36834
G1 X123.106 Y120.606 E0.03900
G1 X106.894 Y104.394 E1.42350
G1 X106.894 Y105.022 E0.03901
G1 X122.478 Y120.606 E1.36833
G1 X121.850 Y120.606 E0.03901
G1 X106.894 Y105.650 E1.31317
G1 X106.894 Y106.279 E0.03901
G1 X121.221 Y120.606 E1.25800
G1 X120.593 Y120.606 E0.03901
G1 X106.894 Y106.907 E1.20284
G1 X106.894 Y107.535 E0.03901
G1 X119.965 Y120.606 E1.14767
G1 X119.336 Y120.606 E0.03901
G1 X106.894 Y108.164 E1.09251
G1 X106.894 Y108.792 E0.03901
G1 X118.708 Y120.606 E1.03734
G1 X118.080 Y120.606 E0.03901
